common/icons/svgs/ticket_available.svg

<svg xmlns="http://www.w3.org/2000/svg" width="24" height="24" viewBox="0 0 24 24">
  <g fill="none" fill-rule="evenodd" transform="translate(-456 -318)">
    <rect width="504" height="450" fill="#FFF"/>
    <g transform="translate(456 318)">
      <rect width="24" height="24"/>
      <path fill="#000" fill-rule="nonzero" d="M9.5093121,10.0873755 C9.97604796,10.0910395 10.3979269,9.81074366 10.5743196,9.37978575 C10.7507122,8.94882784 10.6460214,8.45417847 10.3100338,8.13107369 C9.97404624,7.80796891 9.47456686,7.72161372 9.04912868,7.9130753 C8.6236905,8.10453688 8.35815018,8.53517683 8.37878839,9.00019949 C8.40562181,9.60481359 8.90247053,10.0826116 9.5093121,10.0873755 L9.5093121,10.0873755 Z M14.1020647,10.0873755 C14.564298,10.0914551 14.9832966,9.81691163 15.1630273,9.39219322 C15.3427581,8.96747481 15.247679,8.47657037 14.9222738,8.14915477 C14.5968686,7.82173916 14.1054868,7.72255948 13.6780266,7.898018 C13.2505665,8.07347652 12.9715591,8.48887596 12.971541,8.94986727 C12.9715165,9.57418544 13.4760644,10.0818506 14.1020647,10.0873755 L14.1020647,10.0873755 Z M14.2433802,12.2617276 C13.699618,13.0541465 12.7988009,13.5279472 11.8359703,13.5279472 C10.8731397,13.5279472 9.97232253,13.0541465 9.42856041,12.2617276 C9.22681793,11.9600919 8.87800637,11.7899582 8.51540078,11.8163318 C8.15279519,11.8427053 7.83242734,12.0615106 7.6767044,12.3891459 C7.52098146,12.7167812 7.55396659,13.1026185 7.76305672,13.3992358 C8.68319208,14.7395992 10.2071491,15.5409687 11.8359703,15.5409687 C13.4647915,15.5409687 14.9887485,14.7395992 15.9088838,13.3992358 C16.2155479,12.9407265 16.0954705,12.3215304 15.6394983,12.0101098 C15.183526,11.6986891 14.5612132,11.8108465 14.2433802,12.2617276 L14.2433802,12.2617276 Z M23.7224104,10.3189037 L21.0979803,7.70162813 C20.8341252,7.43794388 20.4458233,7.34113304 20.0885841,7.44996701 C19.0851705,7.75662068 17.9939751,7.48567466 17.2518867,6.74560929 C16.5097983,6.00554392 16.2381117,4.91732322 16.5456036,3.91664494 C16.654735,3.5603796 16.5576596,3.17313625 16.2932545,2.91000047 L13.6688245,0.292724858 C13.2751222,-0.0975749528 12.6392782,-0.0975749528 12.2455759,0.292724858 L0.264043294,12.2617276 C-0.127323419,12.6543566 -0.127323419,13.2884672 0.264043294,13.6810963 L2.88847335,16.2983719 C3.15232842,16.5620561 3.54063032,16.658867 3.89786952,16.550033 C4.9012832,16.2433793 5.9924786,16.5143253 6.73456697,17.2543907 C7.47665534,17.9944561 7.74834201,19.0826768 7.44085009,20.0833551 C7.33171862,20.4396204 7.42879409,20.8268637 7.69319913,21.0899995 L10.3176292,23.7072751 C10.7113315,24.097575 11.3471755,24.097575 11.7408778,23.7072751 L23.6719406,11.7886047 C23.863032,11.5995905 23.9705183,11.3422963 23.9705183,11.0738871 C23.9705183,10.8054779 23.863032,10.5481837 23.6719406,10.3591695 L23.7224104,10.3189037 Z M11.0738762,21.5631224 L9.55978191,20.0531557 C9.81526477,18.5152971 9.31110818,16.9489809 8.20584171,15.8467275 C7.10057524,14.7444741 5.52997744,14.2416919 3.98791503,14.4964783 L2.47382077,12.9865116 L12.9513531,2.48720979 L14.4654473,4.04750872 C14.2099645,5.58536732 14.714121,7.15168352 15.8193875,8.25393694 C16.924654,9.35619035 18.4952518,9.85897256 20.0373142,9.60418617 L21.5514085,11.1141529 L11.0738762,21.5631224 Z"/>
    </g>
  </g>
</svg>

<svg xmlns="http://www.w3.org/2000/svg" viewbox="0 0 24 24"><path class="icon__shape" fill-rule="nonzero" d="M9.51 10.087a1.135 1.135 0 1 0 .8-1.956 1.143 1.143 0 0 0-1.26-.218 1.137 1.137 0 0 0 .46 2.174zm4.592 0a1.135 1.135 0 1 0 .82-1.938 1.143 1.143 0 0 0-1.95.8c0 .625.504 1.133 1.13 1.138zm.141 2.175a2.92 2.92 0 0 1-4.814 0 1.01 1.01 0 0 0-1.752.127c-.156.328-.123.714.086 1.01a4.94 4.94 0 0 0 4.073 2.142 4.94 4.94 0 0 0 4.073-2.142 1.005 1.005 0 0 0-.27-1.389 1.011 1.011 0 0 0-1.396.252zm9.48-1.943l-2.625-2.617a1.011 1.011 0 0 0-1.01-.252 2.842 2.842 0 0 1-2.836-.704 2.823 2.823 0 0 1-.706-2.83c.109-.356.012-.743-.253-1.006L13.67.293a1.011 1.011 0 0 0-1.423 0L.264 12.262a1.005 1.005 0 0 0 0 1.42l2.624 2.616c.264.264.653.36 1.01.252a2.842 2.842 0 0 1 2.837.704 2.823 2.823 0 0 1 .706 2.83c-.11.356-.012.743.252 1.006l2.625 2.617c.393.39 1.03.39 1.423 0L23.67 11.79a1.005 1.005 0 0 0 0-1.43l.051-.04zm-12.65 11.244l-1.513-1.51a4.824 4.824 0 0 0-1.354-4.206 4.853 4.853 0 0 0-4.218-1.35l-1.514-1.51 10.477-10.5 1.514 1.56a4.824 4.824 0 0 0 1.354 4.207 4.853 4.853 0 0 0 4.218 1.35l1.514 1.51-10.477 10.45z"/></svg>
